water-alert.svg

<svg fill="currentColor" viewBox="0 0 24 24"><path d="M10 3.25S16 10 16 14c0 3.31-2.69 6-6 6s-6-2.69-6-6c0-4 6-10.75 6-10.75M20 7v6h-2V7zm-2 10h2v-2h-2z"/></svg>

<svg  viewBox="0 0 24 24" fill="currentColor"><path  d="M10 3.25C10 3.25 16 10 16 14C16 17.31 13.31 20 10 20S4 17.31 4 14C4 10 10 3.25 10 3.25M20 7V13H18V7H20M18 17H20V15H18V17Z"/></svg>
